flaticon/gastronomy/coffee-maker.svg

<svg xmlns="http://www.w3.org/2000/svg" width="32" height="32" viewBox="0 0 24 24">
    <path d="M7.714844 15L4.714844 15C4.476562 15 4.285156 15.191406 4.285156 15.429688 4.285156 15.664062 4.476562 15.855469 4.714844 15.855469L7.714844 15.855469C7.953125 15.855469 8.144531 15.664062 8.144531 15.429688 8.144531 15.191406 7.953125 15 7.714844 15zM7.714844 13.285156L5.570312 13.285156C5.335938 13.285156 5.144531 13.476562 5.144531 13.714844 5.144531 13.953125 5.335938 14.144531 5.570312 14.144531L7.714844 14.144531C7.953125 14.144531 8.144531 13.953125 8.144531 13.714844 8.144531 13.476562 7.953125 13.285156 7.714844 13.285156zM7.714844 11.570312L4.714844 11.570312C4.476562 11.570312 4.285156 11.761719 4.285156 12 4.285156 12.238281 4.476562 12.429688 4.714844 12.429688L7.714844 12.429688C7.953125 12.429688 8.144531 12.238281 8.144531 12 8.144531 11.761719 7.953125 11.570312 7.714844 11.570312zM7.714844 9.855469L5.570312 9.855469C5.335938 9.855469 5.144531 10.046875 5.144531 10.285156 5.144531 10.523438 5.335938 10.714844 5.570312 10.714844L7.714844 10.714844C7.953125 10.714844 8.144531 10.523438 8.144531 10.285156 8.144531 10.046875 7.953125 9.855469 7.714844 9.855469zM7.714844 9.855469"/>
    <path d="M 24 11.792969 C 23.941406 7.757812 20.855469 4.425781 16.929688 3.929688 C 17.0625 3.699219 17.144531 3.4375 17.144531 3.15625 L 17.144531 1.285156 C 17.144531 1.164062 17.089844 1.046875 17 0.964844 C 16.90625 0.882812 16.785156 0.84375 16.664062 0.859375 L 2.09375 2.574219 C 1.929688 2.59375 1.792969 2.703125 1.738281 2.859375 C 1.683594 3.015625 1.722656 3.1875 1.839844 3.304688 L 4.285156 5.75 L 4.285156 7.597656 C 1.785156 9.4375 0 13.097656 0 16.5 C 0 17.257812 0.09375 17.976562 0.269531 18.652344 C 0.269531 18.65625 0.269531 18.660156 0.269531 18.660156 C 0.273438 18.675781 0.28125 18.6875 0.28125 18.699219 C 0.339844 18.90625 0.402344 19.109375 0.472656 19.308594 C 0.480469 19.320312 0.484375 19.335938 0.488281 19.351562 C 0.5625 19.554688 0.648438 19.753906 0.738281 19.945312 C 0.757812 19.980469 0.777344 20.015625 0.792969 20.054688 C 0.867188 20.203125 0.949219 20.347656 1.03125 20.492188 C 1.0625 20.542969 1.089844 20.59375 1.121094 20.640625 C 1.21875 20.804688 1.328125 20.960938 1.441406 21.117188 C 1.480469 21.167969 1.523438 21.21875 1.5625 21.269531 C 1.648438 21.378906 1.738281 21.488281 1.832031 21.59375 C 1.882812 21.648438 1.929688 21.703125 1.984375 21.757812 C 2.113281 21.898438 2.25 22.039062 2.394531 22.171875 C 2.429688 22.203125 2.46875 22.230469 2.503906 22.261719 C 2.632812 22.375 2.761719 22.484375 2.898438 22.589844 C 2.949219 22.628906 3 22.667969 3.050781 22.703125 C 3.226562 22.832031 3.40625 22.960938 3.59375 23.078125 C 3.660156 23.121094 3.742188 23.144531 3.820312 23.144531 L 17.605469 23.144531 C 17.6875 23.144531 17.765625 23.121094 17.835938 23.078125 C 18.042969 22.949219 18.238281 22.808594 18.425781 22.667969 C 18.457031 22.640625 18.492188 22.617188 18.523438 22.59375 C 20.425781 21.121094 21.429688 19.035156 21.429688 16.5 C 21.429688 13.097656 19.644531 9.4375 17.144531 7.597656 L 17.144531 6.945312 C 19.464844 7.367188 21.269531 9.273438 21.417969 11.625 C 21.425781 11.742188 21.429688 11.863281 21.429688 11.984375 C 21.429688 12.609375 21.882812 13.160156 22.488281 13.265625 C 22.5625 13.277344 22.636719 13.285156 22.710938 13.285156 C 23.015625 13.285156 23.308594 13.179688 23.542969 12.984375 C 23.832031 12.738281 24 12.378906 24 12 Z M 16.285156 1.769531 L 16.285156 3.15625 C 16.285156 3.542969 15.972656 3.855469 15.585938 3.855469 L 14.84375 3.855469 C 14.742188 3.855469 14.640625 3.867188 14.542969 3.886719 C 14.511719 3.894531 14.484375 3.90625 14.453125 3.914062 C 14.390625 3.929688 14.328125 3.945312 14.265625 3.972656 C 14.230469 3.984375 14.199219 4.003906 14.164062 4.019531 C 14.113281 4.042969 14.0625 4.070312 14.011719 4.101562 C 13.980469 4.125 13.949219 4.148438 13.917969 4.171875 C 13.871094 4.203125 13.828125 4.238281 13.789062 4.277344 C 13.757812 4.304688 13.730469 4.332031 13.703125 4.359375 C 13.664062 4.402344 13.628906 4.445312 13.597656 4.492188 C 13.574219 4.523438 13.550781 4.554688 13.53125 4.585938 C 13.5 4.636719 13.472656 4.6875 13.445312 4.738281 C 13.429688 4.773438 13.414062 4.804688 13.398438 4.839844 C 13.375 4.898438 13.355469 4.960938 13.339844 5.023438 C 13.332031 5.058594 13.320312 5.085938 13.316406 5.121094 C 13.3125 5.128906 13.3125 5.132812 13.308594 5.144531 L 4.890625 5.144531 L 3.070312 3.324219 Z M 3.945312 22.285156 C 3.808594 22.195312 3.675781 22.101562 3.550781 22.007812 C 3.492188 21.964844 3.433594 21.917969 3.378906 21.875 C 3.3125 21.824219 3.25 21.773438 3.1875 21.71875 C 3.117188 21.660156 3.046875 21.597656 2.976562 21.535156 C 2.9375 21.5 2.898438 21.460938 2.859375 21.425781 C 2.78125 21.351562 2.707031 21.273438 2.632812 21.195312 C 2.613281 21.175781 2.59375 21.15625 2.574219 21.136719 C 2.121094 20.644531 1.753906 20.09375 1.480469 19.496094 C 1.46875 19.472656 1.457031 19.445312 1.445312 19.421875 C 1.421875 19.367188 1.402344 19.3125 1.378906 19.257812 C 2.0625 19.355469 2.777344 19.152344 3.292969 18.667969 C 3.839844 18.152344 4.730469 18.152344 5.277344 18.667969 C 6.148438 19.488281 7.566406 19.488281 8.4375 18.667969 C 8.984375 18.152344 9.871094 18.152344 10.417969 18.667969 C 11.289062 19.488281 12.707031 19.488281 13.578125 18.667969 C 14.125 18.152344 15.015625 18.152344 15.5625 18.667969 C 16.433594 19.488281 17.851562 19.488281 18.722656 18.667969 C 19.148438 18.261719 19.800781 18.175781 20.328125 18.421875 C 20.324219 18.441406 20.316406 18.464844 20.3125 18.484375 C 20.273438 18.628906 20.226562 18.773438 20.179688 18.914062 C 20.164062 18.960938 20.148438 19.003906 20.132812 19.050781 C 20.078125 19.199219 20.015625 19.34375 19.953125 19.488281 C 19.914062 19.566406 19.875 19.644531 19.835938 19.722656 C 19.800781 19.792969 19.765625 19.859375 19.726562 19.925781 C 19.679688 20.011719 19.628906 20.101562 19.578125 20.1875 C 19.578125 20.1875 19.574219 20.1875 19.574219 20.191406 C 19.449219 20.390625 19.308594 20.585938 19.160156 20.773438 C 19.121094 20.824219 19.078125 20.875 19.039062 20.921875 C 18.972656 21 18.90625 21.078125 18.839844 21.152344 C 18.761719 21.230469 18.683594 21.3125 18.605469 21.390625 C 18.527344 21.464844 18.449219 21.535156 18.371094 21.605469 C 18.28125 21.6875 18.1875 21.765625 18.089844 21.84375 C 18.042969 21.882812 17.988281 21.921875 17.9375 21.960938 C 17.789062 22.074219 17.640625 22.183594 17.480469 22.285156 Z M 20.570312 16.5 C 20.570312 16.871094 20.542969 17.226562 20.496094 17.574219 C 19.695312 17.289062 18.765625 17.449219 18.132812 18.042969 C 17.585938 18.558594 16.699219 18.558594 16.152344 18.042969 C 15.28125 17.222656 13.863281 17.222656 12.992188 18.042969 C 12.445312 18.558594 11.554688 18.558594 11.007812 18.042969 C 10.136719 17.222656 8.71875 17.222656 7.847656 18.042969 C 7.300781 18.558594 6.414062 18.558594 5.863281 18.042969 C 4.996094 17.222656 3.578125 17.222656 2.707031 18.042969 C 2.265625 18.457031 1.59375 18.539062 1.054688 18.265625 C 0.925781 17.710938 0.855469 17.121094 0.855469 16.5 C 0.855469 13.261719 2.589844 9.769531 4.992188 8.144531 L 16.4375 8.144531 C 18.839844 9.769531 20.570312 13.261719 20.570312 16.5 Z M 16.285156 7.285156 L 5.144531 7.285156 L 5.144531 6 L 13.285156 6 L 13.285156 6.855469 L 16.171875 6.855469 C 16.210938 6.855469 16.246094 6.863281 16.285156 6.863281 Z M 22.988281 12.328125 C 22.890625 12.410156 22.765625 12.445312 22.632812 12.421875 C 22.4375 12.386719 22.285156 12.195312 22.285156 11.984375 C 22.285156 11.84375 22.28125 11.707031 22.273438 11.574219 C 22.085938 8.605469 19.65625 6.25 16.648438 6.023438 C 16.597656 6.007812 16.542969 6 16.484375 6 L 14.144531 6 L 14.144531 5.414062 C 14.144531 5.027344 14.457031 4.714844 14.84375 4.714844 L 15.921875 4.714844 C 19.847656 4.714844 23.085938 7.894531 23.140625 11.804688 L 23.144531 12 C 23.144531 12.125 23.085938 12.246094 22.988281 12.328125 Z M 22.988281 12.328125"/>
</svg>

<svg xmlns="http://www.w3.org/2000/svg" width="32" height="32" viewBox="0 0 24 24">
    <path d="M7.715 15h-3a.428.428 0 1 0 0 .855h3a.428.428 0 1 0 0-.855zm0 0M7.715 13.285H5.57a.428.428 0 0 0-.425.43c0 .238.19.43.425.43h2.145c.238 0 .43-.192.43-.43a.428.428 0 0 0-.43-.43zm0 0M7.715 11.57h-3a.428.428 0 0 0-.43.43c0 .238.192.43.43.43h3c.238 0 .43-.192.43-.43a.428.428 0 0 0-.43-.43zm0 0M7.715 9.855H5.57a.428.428 0 0 0-.425.43c0 .238.19.43.425.43h2.145c.238 0 .43-.192.43-.43a.428.428 0 0 0-.43-.43zm0 0"/>
    <path d="M24 11.793c-.059-4.035-3.145-7.367-7.07-7.863.133-.23.215-.493.215-.774v-1.87A.439.439 0 0 0 17 .964a.427.427 0 0 0-.336-.106L2.094 2.574a.428.428 0 0 0-.254.73L4.285 5.75v1.848C1.785 9.438 0 13.098 0 16.5c0 .758.094 1.477.27 2.152v.008c.003.016.011.027.011.04.059.206.121.41.192.609.007.011.011.027.015.043.075.203.16.402.25.593.02.035.04.07.055.11.074.148.156.293.238.437.032.051.059.102.09.149.098.164.207.32.32.476.04.051.082.102.121.153.086.109.176.218.27.324.05.054.098.11.152.164.13.14.266.281.41.414.036.031.075.058.11.09.129.113.258.222.394.328.051.039.102.078.153.113.176.129.355.258.543.375a.426.426 0 0 0 .226.067h13.785c.082 0 .16-.024.23-.067.208-.129.403-.27.59-.41.032-.027.067-.05.098-.074 1.903-1.473 2.907-3.559 2.907-6.094 0-3.402-1.785-7.063-4.285-8.902v-.653c2.32.422 4.125 2.328 4.273 4.68.008.117.012.238.012.36 0 .624.453 1.175 1.058 1.28a1.296 1.296 0 0 0 1.055-.281c.289-.246.457-.605.457-.984zM16.285 1.77v1.386c0 .387-.312.7-.7.7h-.741a1.54 1.54 0 0 0-.301.03c-.031.009-.059.02-.09.028-.062.016-.125.031-.187.059-.036.011-.067.03-.102.047-.05.023-.101.05-.152.082l-.094.07a.843.843 0 0 0-.129.105 1.123 1.123 0 0 0-.191.215c-.024.031-.047.063-.067.094-.031.05-.058.101-.086.152-.015.035-.03.067-.047.102a1.436 1.436 0 0 0-.058.183c-.008.036-.02.063-.024.098-.004.008-.004.012-.007.024H4.89l-1.82-1.82zM3.945 22.285a7.805 7.805 0 0 1-.394-.277c-.059-.043-.117-.09-.172-.133a3.703 3.703 0 0 1-.192-.156c-.07-.059-.14-.121-.21-.184-.04-.035-.079-.074-.118-.11a6.303 6.303 0 0 1-.226-.23l-.059-.058a6.27 6.27 0 0 1-1.094-1.64c-.011-.024-.023-.052-.035-.075-.023-.055-.043-.11-.066-.164a2.321 2.321 0 0 0 1.914-.59 1.466 1.466 0 0 1 1.984 0c.871.82 2.29.82 3.16 0a1.461 1.461 0 0 1 1.981 0c.871.82 2.289.82 3.16 0a1.466 1.466 0 0 1 1.985 0c.87.82 2.289.82 3.16 0 .425-.406 1.078-.492 1.605-.246-.004.02-.012.043-.015.062-.04.145-.086.29-.133.43-.016.047-.032.09-.047.137a8.56 8.56 0 0 1-.18.437l-.117.235c-.035.07-.07.136-.11.203a8.88 8.88 0 0 1-.148.262s-.004 0-.004.003c-.125.2-.265.395-.414.582-.039.051-.082.102-.12.149-.067.078-.134.156-.2.23l-.235.239c-.078.074-.156.144-.234.214-.09.082-.183.16-.281.239-.047.039-.102.078-.152.117a6.41 6.41 0 0 1-.458.324zM20.57 16.5c0 .371-.027.727-.074 1.074-.8-.285-1.73-.125-2.363.469a1.461 1.461 0 0 1-1.98 0c-.872-.82-2.29-.82-3.16 0a1.466 1.466 0 0 1-1.985 0c-.871-.82-2.29-.82-3.16 0a1.466 1.466 0 0 1-1.985 0c-.867-.82-2.285-.82-3.156 0a1.465 1.465 0 0 1-1.652.223 7.786 7.786 0 0 1-.2-1.766c0-3.238 1.735-6.73 4.137-8.355h11.446C18.84 9.77 20.57 13.262 20.57 16.5zm-4.285-9.215H5.145V6h8.14v.855h2.887c.039 0 .074.008.113.008zm6.703 5.043a.427.427 0 0 1-.355.094.446.446 0 0 1-.348-.438c0-.14-.004-.277-.012-.41-.187-2.969-2.617-5.324-5.625-5.55A.555.555 0 0 0 16.484 6h-2.34v-.586c0-.387.313-.7.7-.7h1.078c3.926 0 7.164 3.18 7.219 7.09l.004.196a.433.433 0 0 1-.157.328zm0 0"/>
</svg>
